X:083 
T:Jackson's Walk to Limerick  
S:Gunn MS
F:file ID: cre.4/083jacks_wL
B:CRE4.022 (Triall Mhic Shiacais ar LuÃÂÃÂÃÂÃÂ­mneach)
N:edited - repeats added
L:1/8
Q:160
M:6/8
R:jig
K:D
c|def AFA|DDD AFA|def AGF|EFA B2c|
"5"def AFA|DDD AFA|dcB AGF|EFA B2 :|
|:c|"9"d2d fdB|c2c ecA|d2d fdB|AFA B2c|
"13"ddd fdB|ccc ecA|dcB AGF|EFA B2 :|
|:c|"17"fdf fdf|ece ece|fdf fdB|AFA B2c|
"21"fdf fdf|ece ece|dcB AGF|EFA B2 :|
|:c|"25"dDD FED|FAD FED|dDD AGF|EFA B2c|
"29"dDD FED|FAD FED|def AGF EFA B2 :|
|:c|"33"A3 AGF|ABA AGF|AAA dAF|EFA B2c|
"37"AAA BBB|ccc d2e|fdB AGF|EFA B2 :|

%%%

